DevCon_2019/Icons/SVG/icon_star.svg

<svg height="29" viewBox="0 0 30 29" width="30" xmlns="http://www.w3.org/2000/svg"><path d="m47.7143211 27.1249811c0 .3214289-.2321431.6250007-.4642862.8571439l-6.4821506 6.3214361 1.5357161 8.928582c.0178572.1250002.0178572.2321432.0178572.3571433 0 .4642863-.214286.8928582-.7321438.8928582-.2500003 0-.5000006-.0892858-.7142865-.2142859l-8.0178667-4.2142908-8.0178667 4.2142908c-.2321432.1250001-.4642863.2142859-.7142866.2142859-.5178578 0-.7500009-.4285719-.7500009-.8928582 0-.1250001.0178572-.2321431.0357143-.3571433l1.5357162-8.928582-6.5000078-6.3214361c-.214286-.2321432-.4464291-.535715-.4464291-.8571439 0-.5357149.5535721-.7500009 1.0000012-.8214296l8.9642964-1.303573 4.0178619-8.1250096c.1607145-.3392862.4642863-.7321438.8750011-.7321438.4107147 0 .7142865.3928576.875001.7321438l4.0178619 8.1250096 8.9642964 1.303573c.428572.0714287 1.0000012.2857147 1.0000012.8214296z" fill="#f3f8f2" fill-rule="evenodd" transform="translate(-18 -16)"/></svg>

<?xml version="1.0" encoding="UTF-8"?>
<svg width="30px" height="29px" viewBox="0 0 30 29" version="1.1" xmlns="http://www.w3.org/2000/svg" xmlns:xlink="http://www.w3.org/1999/xlink">
    <!-- Generator: Sketch 52.6 (67491) - http://www.bohemiancoding.com/sketch -->
    <title>Star - FontAwesome</title>
    <desc>Created with Sketch.</desc>
    <g id="Page-1" stroke="none" stroke-width="1" fill="none" fill-rule="evenodd">
        <g id="DESKTOP-1024PX" transform="translate(-134.000000, -3890.000000)" fill="#F3F8F2">
            <g id="EVENT-AGENDA" transform="translate(-98.000000, 2685.000000)">
                <g id="DAY-1-AGENDA-Copy-3" transform="translate(193.000000, 249.000000)">
                    <g id="AGENDA-ITEM-Copy-5" transform="translate(21.000000, 940.000000)">
                        <g id="AVATAR">
                            <path d="M47.7143211,27.1249811 C47.7143211,27.44641 47.482178,27.7499818 47.2500349,27.982125 L40.7678843,34.3035611 L42.3036004,43.2321431 C42.3214576,43.3571433 42.3214576,43.4642863 42.3214576,43.5892864 C42.3214576,44.0535727 42.1071716,44.4821446 41.5893138,44.4821446 C41.3393135,44.4821446 41.0893132,44.3928588 40.8750273,44.2678587 L32.8571606,40.0535679 L24.8392939,44.2678587 C24.6071507,44.3928588 24.3750076,44.4821446 24.1250073,44.4821446 C23.6071495,44.4821446 23.3750064,44.0535727 23.3750064,43.5892864 C23.3750064,43.4642863 23.3928636,43.3571433 23.4107207,43.2321431 L24.9464369,34.3035611 L18.4464291,27.982125 C18.2321431,27.7499818 18,27.44641 18,27.1249811 C18,26.5892662 18.5535721,26.3749802 19.0000012,26.3035515 L27.9642976,24.9999785 L31.9821595,16.8749689 C32.142874,16.5356827 32.4464458,16.1428251 32.8571606,16.1428251 C33.2678753,16.1428251 33.5714471,16.5356827 33.7321616,16.8749689 L37.7500235,24.9999785 L46.7143199,26.3035515 C47.1428919,26.3749802 47.7143211,26.5892662 47.7143211,27.1249811 Z" id="Star---FontAwesome"></path>
                        </g>
                    </g>
                </g>
            </g>
        </g>
    </g>
</svg>
